Pods/ProtonCore-UIFoundations/libraries/UIFoundations/Sources/Assets.xcassets/Images/IconSet/ic-paper-clip-vertical.imageset/ic-paper-clip-vertical.svg

<svg width="24" height="24" viewBox="0 0 24 24" fill="none" xmlns="http://www.w3.org/2000/svg">
<path fill-rule="evenodd" clip-rule="evenodd" d="M13.4857 6.32725C13.5191 4.50885 12.1105 3.09295 10.3548 3.1264C8.57417 3.16032 7.07612 4.66992 7.04231 6.51081L6.87091 15.8412C6.81857 18.6902 9.03228 20.926 11.8 20.8733C14.5927 20.8201 16.9266 18.4594 16.9793 15.5879L17.1301 7.37709C17.1384 6.92821 17.5077 6.57103 17.9549 6.57931C18.4022 6.58758 18.7581 6.95818 18.7499 7.40705L18.599 15.6178C18.5306 19.3422 15.5154 22.4286 11.8308 22.4988C8.12128 22.5694 5.18236 19.5582 5.25118 15.8113L5.42258 6.48084C5.47207 3.78704 7.65151 1.55179 10.324 1.50089C13.0215 1.4495 15.1553 3.64093 15.1054 6.35722L14.934 15.6876C14.9034 17.3508 13.5598 18.735 11.8993 18.7666C10.214 18.7987 8.88526 17.4271 8.91622 15.7415L9.06705 7.53068C9.0753 7.0818 9.44457 6.72462 9.89184 6.7329C10.3391 6.74117 10.695 7.11177 10.6868 7.56065L10.5359 15.7714C10.5215 16.5592 11.125 17.1553 11.8686 17.1411C12.6371 17.1265 13.2994 16.468 13.3143 15.6577L13.4857 6.32725Z" fill="#0C0C14"/>
</svg>

<svg xmlns="http://www.w3.org/2000/svg" width="24" height="24" viewBox="0 0 24 24">
  <g class="ic-paper-clip-vertical">
    <path fill-rule="evenodd" d="M13.486 6.327c.033-1.818-1.376-3.234-3.131-3.2-1.78.033-3.279 1.543-3.313 3.384l-.171 9.33c-.052 2.85 2.161 5.085 4.929 5.032 2.793-.053 5.127-2.414 5.18-5.285l.15-8.21a.811.811 0 0 1 .825-.799.812.812 0 0 1 .795.828l-.151 8.21c-.068 3.725-3.084 6.812-6.768 6.882-3.71.07-6.649-2.94-6.58-6.688l.172-9.33c.05-2.694 2.229-4.93 4.901-4.98 2.697-.051 4.831 2.14 4.781 4.856l-.171 9.33c-.03 1.664-1.374 3.048-3.035 3.08-1.685.032-3.014-1.34-2.983-3.025l.151-8.211a.811.811 0 0 1 .825-.798.812.812 0 0 1 .795.828l-.151 8.21c-.014.788.589 1.384 1.333 1.37.768-.014 1.43-.673 1.445-1.483l.172-9.33Z" class="Icon"/>
  </g>
</svg>
